svgs/sharp-solid/grip.svg

<svg xmlns="http://www.w3.org/2000/svg" viewBox="0 0 448 512"><!--! Font Awesome Pro 6.6.0 by @fontawesome - https://fontawesome.com License - https://fontawesome.com/license (Commercial License) Copyright 2024 Fonticons, Inc. --><path d="M128 96L0 96 0 224l128 0 0-128zm0 192L0 288 0 416l128 0 0-128zM160 96l0 128 128 0 0-128L160 96zM288 288l-128 0 0 128 128 0 0-128zM320 96l0 128 128 0 0-128L320 96zM448 288l-128 0 0 128 128 0 0-128z"/></svg>

<svg xmlns="http://www.w3.org/2000/svg" viewBox="0 0 448 512"><!--! Font Awesome Pro 6.4.2 by @fontawesome - https://fontawesome.com License - https://fontawesome.com/license (Commercial License) Copyright 2023 Fonticons, Inc. --><path d="M128 96L0 96 0 224l128 0 0-128zm0 192H0L0 416H128l0-128zM160 96l0 128 128 0V96L160 96zM288 288l-128 0 0 128 128 0V288zM320 96V224l128 0V96L320 96zM448 288l-128 0V416H448V288z"/></svg>
